// Limme y salón A8
// Qt

s.boot
n=SonoTexto
n.boot
n.rec(true)
Synth(\b1, [\sb1, 5, \ab1, 4, \rate, 4])

Quarks.gui

Bjorklund

~abc=234;

e=();

e.abc=234;

e.abc*4

t=TecnoTexto()
t.boot
t.fx
t.rev1.set(\mix, 1) // se pueden tener varios reverbs